icon-themes/sifr_svg/cmd/lc_arrowshapes.corner-right-arrow.svg

<svg viewBox="0 0 24 24" xmlns="http://www.w3.org/2000/svg"><g fill="#555753"><path d="m3.0508475 2-.0508475 17h11.050848v4h1.777343l5.222656-5.875v-2.25l-5.222656-5.875h-1.777343v4h-4.8983055l-.101695-11zm2 2h2l-.033898 11h9.0338978v-2.138672l3 3.138672-3 3.138672v-2.138672h-10.9661015z"/><path d="m5.0508475 17h10.9999995v2.138672l3-3.138672-3-3.138672v2.138672h-9.0338978l.0338983-11h-2z" opacity=".35"/></g></svg>

<svg viewBox="0 0 24 24" xmlns="http://www.w3.org/2000/svg">
  <path
     style="fill:#555753"
     d="M 3.0508475,2 3,19 h 11.050848 v 4 h 1.777343 l 5.222656,-5.875 v -2.25 L 15.828191,9 h -1.777343 v 4 H 9.1525425 L 9.0508475,2 Z m 2,2 h 2 l -0.033898,11 h 9.0338978 v -2.138672 l 3,3.138672 -3,3.138672 V 17 H 5.0847458 Z"
     />
  <path
     style="opacity:0.35;fill:#555753"
     d="M 5.0508475,17 H 16.050847 v 2.138672 l 3,-3.138672 -3,-3.138672 V 15 H 7.0169492 L 7.0508475,4 h -2 z"
     />
</svg>
